X:142 
T:Mrs.Long's Tartan Plaid* (reel)
F:file ID: cre.5/142mrs_L
B:CRE5.204 (gan ainm)
M:4/4
Q:180
R:reel
K:G
FG|ABcA BE~E2|CE~E2 GE~E2|ABcA BE~E2|cAGE DEFG|
ABcA BE~E2|CE~E2 GE~E2|G2AB cE~E2|GAGE D2||
K:D
cd|e3f edcd|eaag fdcd|egfd edcd|eage d2cd|
e3f edcd|eaag abag|f3d edcd|eage d4-|"last time"d8|]

%%%

